public/cloud-icons/azure/data/sql-database-edge.svg

<?xml version="1.0" encoding="UTF-8" standalone="no"?>
<!-- Generated by Microsoft Visio, SVG Export SQL Database Edge.svg Page-1 -->

<svg
   xmlns:dc="http://purl.org/dc/elements/1.1/"
   xmlns:cc="http://creativecommons.org/ns#"
   xmlns:rdf="http://www.w3.org/1999/02/22-rdf-syntax-ns#"
   xmlns:svg="http://www.w3.org/2000/svg"
   xmlns="http://www.w3.org/2000/svg"
   xmlns:xlink="http://www.w3.org/1999/xlink"
   xmlns:sodipodi="http://sodipodi.sourceforge.net/DTD/sodipodi-0.dtd"
   xmlns:inkscape="http://www.inkscape.org/namespaces/inkscape"
   width="52.003918"
   height="50.508698"
   viewBox="0 0 52.003915 50.508697"
   xml:space="preserve"
   class="st12"
   version="1.1"
   id="svg114"
   sodipodi:docname="SQL Database Edge.svg"
   style="font-size:12px;overflow:visible;color-interpolation-filters:sRGB;fill:none;fill-rule:evenodd;stroke-linecap:square;stroke-miterlimit:3"
   inkscape:version="0.92.5 (2060ec1f9f, 2020-04-08)"><metadata
   id="metadata118"><rdf:RDF><cc:Work
       rdf:about=""><dc:format>image/svg+xml</dc:format><dc:type
         rdf:resource="http://purl.org/dc/dcmitype/StillImage" /></cc:Work></rdf:RDF></metadata><sodipodi:namedview
   pagecolor="#ffffff"
   bordercolor="#666666"
   borderopacity="1"
   objecttolerance="10"
   gridtolerance="10"
   guidetolerance="10"
   inkscape:pageopacity="0"
   inkscape:pageshadow="2"
   inkscape:window-width="640"
   inkscape:window-height="480"
   id="namedview116"
   showgrid="false"
   inkscape:zoom="2.4585997"
   inkscape:cx="26.003816"
   inkscape:cy="13.466297"
   inkscape:window-x="0"
   inkscape:window-y="0"
   inkscape:window-maximized="0"
   inkscape:current-layer="svg114" />
	<style
   type="text/css"
   id="style2">
	<![CDATA[
		.st1 {fill:#ffffff;fill-opacity:0.4;stroke:none;stroke-linecap:butt;stroke-width:10.9502}
		.st2 {fill:url(#grad0-8);stroke:none;stroke-linecap:butt;stroke-width:10.9502}
		.st3 {fill:#e8e8e8}
		.st4 {stroke:none;stroke-linecap:butt;stroke-width:10.9502}
		.st5 {fill:#50e6ff}
		.st6 {fill:#198ab3;stroke:none;stroke-linecap:butt;stroke-width:10.9502}
		.st7 {fill:url(#grad0-20);stroke:none;stroke-linecap:butt;stroke-width:10.9502}
		.st8 {fill:#0072c6;stroke:none;stroke-linecap:butt;stroke-width:10.9502}
		.st9 {fill:#e8e8e8;stroke:none;stroke-linecap:butt;stroke-width:10.9502}
		.st10 {fill:#50e6ff;stroke:none;stroke-linecap:butt;stroke-width:10.9502}
		.st11 {fill:url(#grad6-35);stroke:none;stroke-linecap:butt;stroke-width:10.9502}
		.st12 {fill:none;fill-rule:evenodd;font-size:12px;overflow:visible;stroke-linecap:square;stroke-miterlimit:3}
	]]>
	</style>

	<defs
   id="Patterns_And_Gradients">
		<linearGradient
   id="grad0-8"
   x1="0"
   y1="0"
   x2="1"
   y2="0">
			<stop
   offset="0"
   stop-color="#005ba1"
   stop-opacity="1"
   id="stop4" />
			<stop
   offset="0.07"
   stop-color="#0060a9"
   stop-opacity="1"
   id="stop6" />
			<stop
   offset="0.355"
   stop-color="#0071c8"
   stop-opacity="1"
   id="stop8" />
			<stop
   offset="0.515"
   stop-color="#0078d4"
   stop-opacity="1"
   id="stop10" />
			<stop
   offset="0.64"
   stop-color="#0074cd"
   stop-opacity="1"
   id="stop12" />
			<stop
   offset="0.82"
   stop-color="#006abb"
   stop-opacity="1"
   id="stop14" />
			<stop
   offset="1"
   stop-color="#005ba1"
   stop-opacity="1"
   id="stop16" />
		</linearGradient>
		<linearGradient
   id="grad0-20"
   x1="0"
   y1="77.091761"
   x2="38.592176"
   y2="77.091761"
   gradientTransform="scale(1.2051665,0.82976083)"
   gradientUnits="userSpaceOnUse">
			<stop
   offset="0"
   stop-color="#198ab3"
   stop-opacity="1"
   id="stop19" />
			<stop
   offset="0.095"
   stop-color="#209ec5"
   stop-opacity="1"
   id="stop21" />
			<stop
   offset="0.24"
   stop-color="#28b6da"
   stop-opacity="1"
   id="stop23" />
			<stop
   offset="0.395"
   stop-color="#2ec7e9"
   stop-opacity="1"
   id="stop25" />
			<stop
   offset="0.565"
   stop-color="#31d1f2"
   stop-opacity="1"
   id="stop27" />
			<stop
   offset="0.775"
   stop-color="#32d4f5"
   stop-opacity="1"
   id="stop29" />
		</linearGradient>
		<radialGradient
   id="grad6-35"
   cx="11.064449"
   cy="125.40093"
   r="15.491312"
   gradientTransform="scale(1.4216705,0.70339788)"
   fx="11.064449"
   fy="125.40093"
   gradientUnits="userSpaceOnUse">
			<stop
   offset="0"
   stop-color="#f2f2f2"
   stop-opacity="1"
   id="stop32" />
			<stop
   offset="0.58"
   stop-color="#eeeeee"
   stop-opacity="1"
   id="stop34" />
			<stop
   offset="1"
   stop-color="#e6e6e6"
   stop-opacity="1"
   id="stop36" />
		</radialGradient>
	<linearGradient
   inkscape:collect="always"
   xlink:href="#grad0-8"
   id="linearGradient4628"
   x1="0"
   y1="79.009798"
   x2="12.058292"
   y2="79.009798"
   gradientTransform="scale(0.94872476,1.0540465)"
   gradientUnits="userSpaceOnUse" /><linearGradient
   inkscape:collect="always"
   xlink:href="#grad0-8"
   id="linearGradient4630"
   x1="0"
   y1="70.364875"
   x2="20.676025"
   y2="70.364875"
   gradientTransform="scale(0.9484415,1.0543613)"
   gradientUnits="userSpaceOnUse" /></defs>
	<g
   id="g112"
   transform="translate(-10.948386,-10.9524)">
		<title
   id="title40">Page-1</title>
		<g
   id="group20417-1"
   transform="translate(9.45301,-34.0157)">
			<title
   id="title42">SQL Database Edge.20417</title>
			<g
   id="group20418-2">
				<title
   id="title44">layer1</title>
				<g
   id="shape20419-3"
   transform="translate(33.6837,-36.843)">
					<title
   id="title46">path40</title>
					<path
   d="M 0,90.55 C 4.76,91.8 5.97,92.6 10.26,95.99 10.23,95.94 10.19,95.89 10.15,95.83 9.95,95.52 9.74,95.22 9.52,94.94 9.44,94.84 9.36,94.72 9.27,94.62 9.08,94.39 8.87,94.18 8.66,93.97 A 11.6804,11.3439 -180 0 0 7.64,93.04 L 7.63,93.03 A 11.5701,11.2368 -180 0 0 3.82,91.06 L 3.64,91 C 3.35,90.92 3.05,90.85 2.75,90.78 A 12.4304,12.0722 -180 0 0 2.03,90.67 C 1.84,90.64 1.66,90.61 1.47,90.59 A 13.1169,12.739 -180 0 0 0.13,90.54 Z"
   class="st1"
   id="path48"
   inkscape:connector-curvature="0"
   style="fill:#ffffff;fill-opacity:0.4;stroke:none;stroke-width:10.95020008;stroke-linecap:butt" />
				</g>
				<g
   id="shape20420-5"
   transform="translate(33.7284,-36.3056)">
					<title
   id="title51">path42</title>
					<path
   d="M 5.72,85.29 C 2.56,85.29 0,84.39 0,83.28 v 10.7 c 0,1.1 2.52,2 5.64,2.01 h 0.08 c 3.16,0 5.72,-0.9 5.72,-2.01 v -10.7 c -0.01,1.11 -2.57,2.01 -5.72,2.01 z"
   class="st2"
   id="path53"
   inkscape:connector-curvature="0"
   style="fill:url(#linearGradient4628);stroke:none;stroke-width:10.95020008;stroke-linecap:butt" />
				</g>
				<g
   id="shape20421-9"
   transform="translate(33.7284,-47.0019)">
					<title
   id="title56">path44</title>
					<path
   d="m 11.43,93.98 c 0,1.11 -2.56,2.01 -5.72,2.01 -3.16,0 -5.71,-0.9 -5.71,-2.01 0,-1.11 2.56,-2.01 5.72,-2.01 3.16,0 5.72,0.9 5.72,2.01 z"
   class="st3"
   id="path58"
   inkscape:connector-curvature="0"
   style="fill:#e8e8e8" />
					<path
   d="m 11.43,93.98 c 0,1.11 -2.56,2.01 -5.72,2.01 -3.16,0 -5.71,-0.9 -5.71,-2.01 0,-1.11 2.56,-2.01 5.72,-2.01 3.16,0 5.72,0.9 5.72,2.01"
   class="st4"
   id="path60"
   inkscape:connector-curvature="0"
   style="stroke:none;stroke-width:10.95020008;stroke-linecap:butt" />
				</g>
				<g
   id="shape20422-12"
   transform="translate(35.063,-47.8969)">
					<title
   id="title63">path46</title>
					<path
   d="m 8.76,94.71 c 0,0.71 -1.96,1.28 -4.38,1.28 C 1.96,95.99 0,95.42 0,94.71 0,94 1.96,93.43 4.39,93.43 c 2.42,0 4.38,0.57 4.38,1.28 z"
   class="st5"
   id="path65"
   inkscape:connector-curvature="0"
   style="fill:#50e6ff" />
					<path
   d="m 8.76,94.71 c 0,0.71 -1.96,1.28 -4.38,1.28 C 1.96,95.99 0,95.42 0,94.71 0,94 1.96,93.43 4.39,93.43 c 2.42,0 4.38,0.57 4.38,1.28"
   class="st4"
   id="path67"
   inkscape:connector-curvature="0"
   style="stroke:none;stroke-width:10.95020008;stroke-linecap:butt" />
				</g>
				<g
   id="shape20423-15"
   transform="translate(35.9784,-47.8919)">
					<title
   id="title70">path48</title>
					<path
   d="M 3.47,95 A 10.6038,10.2983 -180 0 0 0,95.49 10.2303,9.9356 -180 0 0 3.47,95.99 10.2303,9.9356 -180 0 0 6.94,95.48 10.61,10.3043 -180 0 0 3.47,95 Z"
   class="st6"
   id="path72"
   inkscape:connector-curvature="0"
   style="fill:#198ab3;stroke:none;stroke-width:10.95020008;stroke-linecap:butt" />
				</g>
				<g
   id="shape20424-17"
   transform="translate(6.66665,-12.9794)">
					<title
   id="title75">path50</title>
					<path
   d="M 46.51,85.96 A 10.4498,10.1488 -180 0 0 37.44,76.21 C 37.37,69.44 31.33,63.97 23.88,63.97 A 13.5153,13.1259 -180 0 0 10.96,72.52 C 4.75,73.44 0,78.31 0,84.18 c 0,6.52 5.86,11.81 13.1,11.81 0.39,0 0.77,-0.02 1.15,-0.05 h 21.21 a 2.10952,2.04874 -180 0 0 0.56,-0.08 c 5.84,-0.23 10.49,-4.58 10.49,-9.9 z"
   class="st7"
   id="path77"
   inkscape:connector-curvature="0"
   style="fill:url(#grad0-20);stroke:none;stroke-width:10.95020008;stroke-linecap:butt" />
				</g>
				<g
   id="shape20425-21">
					<title
   id="title80">path52</title>
					<path
   d="m 52.17,53.38 c -1.43,-1.82 -3.89,-2.7 -7.01,-2.74 v 3.03 c 2.19,0.03 3.78,0.57 4.54,1.55 2.63,3.35 -2.15,14.33 -15.9,24.6 C 20.04,90.1 7.92,91.74 5.29,88.39 3.8,86.49 4.72,82.13 8.28,76.85 A 11.4827,11.1519 0 0 1 6.91,73.48 C 1.83,80.25 0,86.64 2.82,90.23 c 4.52,5.76 19.24,2.18 32.87,-8 13.62,-10.18 21,-23.09 16.48,-28.85 z"
   class="st8"
   id="path82"
   inkscape:connector-curvature="0"
   style="fill:#0072c6;stroke:none;stroke-width:10.95020008;stroke-linecap:butt" />
				</g>
				<g
   id="shape20426-23"
   transform="translate(16.0981,-0.513202)">
					<title
   id="title85">path54</title>
					<path
   d="M 9.81,77.64 C 4.39,77.64 0,76.1 0,74.19 v 18.35 c 0,1.89 4.32,3.42 9.67,3.45 h 0.14 c 5.41,0 9.8,-1.54 9.8,-3.45 V 74.19 c 0,1.91 -4.39,3.45 -9.8,3.45 z"
   class="st2"
   id="path87"
   inkscape:connector-curvature="0"
   style="fill:url(#linearGradient4630);stroke:none;stroke-width:10.95020008;stroke-linecap:butt" />
				</g>
				<g
   id="shape20427-26"
   transform="translate(16.0981,-18.863)">
					<title
   id="title90">path56</title>
					<path
   d="m 19.61,92.54 c 0,1.9 -4.39,3.45 -9.8,3.45 C 4.39,95.99 0,94.44 0,92.54 c 0,-1.91 4.39,-3.45 9.81,-3.45 5.41,0 9.8,1.55 9.8,3.45 z"
   class="st9"
   id="path92"
   inkscape:connector-curvature="0"
   style="fill:#e8e8e8;stroke:none;stroke-width:10.95020008;stroke-linecap:butt" />
				</g>
				<g
   id="shape20428-28"
   transform="translate(18.3876,-20.3986)">
					<title
   id="title95">path58</title>
					<path
   d="m 15.04,93.8 c 0,1.21 -3.37,2.19 -7.52,2.19 C 3.37,95.99 0,95.01 0,93.8 c 0,-1.21 3.37,-2.2 7.52,-2.2 4.15,0 7.52,0.99 7.52,2.2 z"
   class="st10"
   id="path97"
   inkscape:connector-curvature="0"
   style="fill:#50e6ff;stroke:none;stroke-width:10.95020008;stroke-linecap:butt" />
				</g>
				<g
   id="shape20429-30"
   transform="translate(19.95,-20.3986)">
					<title
   id="title100">path60</title>
					<path
   d="M 5.96,94.3 A 18.1681,17.6447 -180 0 0 0,95.13 17.5513,17.0456 -180 0 0 5.96,95.99 17.5544,17.0486 -180 0 0 11.91,95.13 18.1795,17.6558 -180 0 0 5.96,94.3 Z"
   class="st6"
   id="path102"
   inkscape:connector-curvature="0"
   style="fill:#198ab3;stroke:none;stroke-width:10.95020008;stroke-linecap:butt" />
				</g>
				<g
   id="shape20430-32"
   transform="translate(18.48,-6.91703)">
					<title
   id="title105">path62</title>
					<path
   d="m 13.39,93.33 v -5.02 h -1.43 v 6.14 h 3.77 V 93.33 Z M 2.48,90.86 A 3.10395,3.01452 0 0 1 1.69,90.4 0.662606,0.643516 0 0 1 1.498538,89.923185 0.549225,0.533401 0 0 1 1.735605,89.471609 1.07661,1.04559 0 0 1 2.38,89.3 2.49648,2.42455 0 0 1 3.84,89.73 V 88.45 A 4.16807,4.04799 -180 0 0 2.31,88.21 2.57345,2.49931 -180 0 0 0.63,88.71 1.67264,1.62445 -180 0 0 0,90.04 2.07311,2.01339 -180 0 0 1.45,91.83 4.22632,4.10456 0 0 1 2.39,92.36 0.653244,0.634424 0 0 1 2.621956,92.843878 0.549225,0.533401 0 0 1 2.380564,93.297481 1.13486,1.10216 0 0 1 1.7,93.47 2.52768,2.45486 0 0 1 0.03,92.85 v 1.37 a 3.43265,3.33375 -180 0 0 1.63,0.34 2.9292,2.8448 -180 0 0 1.8,-0.48 1.64663,1.59919 -180 0 0 0.66,-1.35 1.58526,1.53959 -180 0 0 -0.38,-1.05 3.89554,3.78331 -180 0 0 -1.26,-0.82 z m 7.93,2.36 A 3.91635,3.80351 -180 0 0 10.54,89.71 2.74092,2.66195 -180 0 0 9.46,88.6 3.05194,2.96401 -180 0 0 7.9,88.21 a 3.27766,3.18323 -180 0 0 -1.65,0.4 2.83038,2.74883 -180 0 0 -1.13,1.16 3.74471,3.63682 -180 0 0 -0.4,1.7 3.49403,3.39336 -180 0 0 0.37,1.56 2.78773,2.70741 -180 0 0 1.04,1.1 3.0561,2.96805 -180 0 0 1.52,0.43 l 1.31,1.43 h 1.85 L 8.98,94.34 a 2.70452,2.62659 -180 0 0 1.43,-1.12 z M 8.99,92.84 A 1.42299,1.38199 0 0 1 7.82,93.37 1.40115,1.36078 0 0 1 6.66,92.83 2.71804,2.63973 0 0 1 6.67,89.94 1.44275,1.40119 0 0 1 7.85,89.4 1.35226,1.3133 0 0 1 9,89.94 2.47671,2.40535 0 0 1 9.41,91.42 2.26763,2.2023 0 0 1 8.99,92.84 Z"
   class="st11"
   id="path107"
   inkscape:connector-curvature="0"
   style="fill:url(#grad6-35);stroke:none;stroke-width:10.95020008;stroke-linecap:butt" />
				</g>
			</g>
		</g>
	</g>
</svg>

<svg xmlns="http://www.w3.org/2000/svg" xmlns:xlink="http://www.w3.org/1999/xlink" xml:space="preserve" width="52.004" height="50.509" style="font-size:12px;overflow:visible;color-interpolation-filters:sRGB;fill-rule:evenodd;stroke-linecap:square;stroke-miterlimit:3" viewBox="0 0 52.004 50.509"><defs><linearGradient id="a" x1="0" x2="1" y1="0" y2="0"><stop offset="0" stop-color="#005ba1"/><stop offset=".07" stop-color="#0060a9"/><stop offset=".355" stop-color="#0071c8"/><stop offset=".515" stop-color="#0078d4"/><stop offset=".64" stop-color="#0074cd"/><stop offset=".82" stop-color="#006abb"/><stop offset="1" stop-color="#005ba1"/></linearGradient><linearGradient id="c" x1="0" x2="38.592" y1="77.092" y2="77.092" gradientTransform="scale(1.20517 .82976)" gradientUnits="userSpaceOnUse"><stop offset="0" stop-color="#198ab3"/><stop offset=".095" stop-color="#209ec5"/><stop offset=".24" stop-color="#28b6da"/><stop offset=".395" stop-color="#2ec7e9"/><stop offset=".565" stop-color="#31d1f2"/><stop offset=".775" stop-color="#32d4f5"/></linearGradient><linearGradient xlink:href="#a" id="b" x1="0" x2="12.058" y1="79.01" y2="79.01" gradientTransform="scale(.94872 1.05405)" gradientUnits="userSpaceOnUse"/><linearGradient xlink:href="#a" id="d" x1="0" x2="20.676" y1="70.365" y2="70.365" gradientTransform="scale(.94844 1.05436)" gradientUnits="userSpaceOnUse"/><radialGradient id="e" cx="11.064" cy="125.401" r="15.491" fx="11.064" fy="125.401" gradientTransform="scale(1.42167 .7034)" gradientUnits="userSpaceOnUse"><stop offset="0" stop-color="#f2f2f2"/><stop offset=".58" stop-color="#eee"/><stop offset="1" stop-color="#e6e6e6"/></radialGradient></defs><g transform="translate(-10.948 -10.952)"><title>Page-1</title><g transform="translate(9.453 -34.016)"><title>SQL Database Edge.20417</title><title>layer1</title><g transform="translate(33.684 -36.843)"><title>path40</title><path d="M0 90.55c4.76 1.25 5.97 2.05 10.26 5.44-.03-.05-.07-.1-.11-.16-.2-.31-.41-.61-.63-.89-.08-.1-.16-.22-.25-.32-.19-.23-.4-.44-.61-.65a11.68 11.344-180 0 0-1.02-.93l-.01-.01a11.57 11.237-180 0 0-3.81-1.97L3.64 91c-.29-.08-.59-.15-.89-.22a12.43 12.072-180 0 0-.72-.11c-.19-.03-.37-.06-.56-.08a13.117 12.739-180 0 0-1.34-.05Z" style="fill:#fff;fill-opacity:.4;stroke:none;stroke-width:10.95020008;stroke-linecap:butt"/></g><g transform="translate(33.728 -36.306)"><title>path42</title><path d="M5.72 85.29c-3.16 0-5.72-.9-5.72-2.01v10.7c0 1.1 2.52 2 5.64 2.01h.08c3.16 0 5.72-.9 5.72-2.01v-10.7c-.01 1.11-2.57 2.01-5.72 2.01" style="fill:url(#b);stroke:none;stroke-width:10.95020008;stroke-linecap:butt"/></g><g transform="translate(33.728 -47.002)"><title>path44</title><path d="M11.43 93.98c0 1.11-2.56 2.01-5.72 2.01S0 95.09 0 93.98s2.56-2.01 5.72-2.01 5.72.9 5.72 2.01z" style="fill:#e8e8e8"/><path d="M11.43 93.98c0 1.11-2.56 2.01-5.72 2.01S0 95.09 0 93.98s2.56-2.01 5.72-2.01 5.72.9 5.72 2.01" style="stroke:none;stroke-width:10.95020008;stroke-linecap:butt"/></g><g transform="translate(35.063 -47.897)"><title>path46</title><path d="M8.76 94.71c0 .71-1.96 1.28-4.38 1.28S0 95.42 0 94.71s1.96-1.28 4.39-1.28c2.42 0 4.38.57 4.38 1.28z" style="fill:#50e6ff"/><path d="M8.76 94.71c0 .71-1.96 1.28-4.38 1.28S0 95.42 0 94.71s1.96-1.28 4.39-1.28c2.42 0 4.38.57 4.38 1.28" style="stroke:none;stroke-width:10.95020008;stroke-linecap:butt"/></g><g transform="translate(35.978 -47.892)"><title>path48</title><path d="M3.47 95a10.604 10.298-180 0 0-3.47.49 10.23 9.936-180 0 0 3.47.5 10.23 9.936-180 0 0 3.47-.51A10.61 10.304-180 0 0 3.47 95" style="fill:#198ab3;stroke:none;stroke-width:10.95020008;stroke-linecap:butt"/></g><g transform="translate(6.667 -12.98)"><title>path50</title><path d="M46.51 85.96a10.45 10.149-180 0 0-9.07-9.75c-.07-6.77-6.11-12.24-13.56-12.24a13.515 13.126-180 0 0-12.92 8.55C4.75 73.44 0 78.31 0 84.18c0 6.52 5.86 11.81 13.1 11.81.39 0 .77-.02 1.15-.05h21.21a2.11 2.049-180 0 0 .56-.08c5.84-.23 10.49-4.58 10.49-9.9" style="fill:url(#c);stroke:none;stroke-width:10.95020008;stroke-linecap:butt"/></g><title>path52</title><path d="M52.17 53.38c-1.43-1.82-3.89-2.7-7.01-2.74v3.03c2.19.03 3.78.57 4.54 1.55 2.63 3.35-2.15 14.33-15.9 24.6C20.04 90.1 7.92 91.74 5.29 88.39c-1.49-1.9-.57-6.26 2.99-11.54a11.483 11.152 0 0 1-1.37-3.37C1.83 80.25 0 86.64 2.82 90.23c4.52 5.76 19.24 2.18 32.87-8 13.62-10.18 21-23.09 16.48-28.85" style="fill:#0072c6;stroke:none;stroke-width:10.95020008;stroke-linecap:butt"/><g transform="translate(16.098 -.513)"><title>path54</title><path d="M9.81 77.64C4.39 77.64 0 76.1 0 74.19v18.35c0 1.89 4.32 3.42 9.67 3.45h.14c5.41 0 9.8-1.54 9.8-3.45V74.19c0 1.91-4.39 3.45-9.8 3.45" style="fill:url(#d);stroke:none;stroke-width:10.95020008;stroke-linecap:butt"/></g><g transform="translate(16.098 -18.863)"><title>path56</title><path d="M19.61 92.54c0 1.9-4.39 3.45-9.8 3.45-5.42 0-9.81-1.55-9.81-3.45 0-1.91 4.39-3.45 9.81-3.45 5.41 0 9.8 1.55 9.8 3.45" style="fill:#e8e8e8;stroke:none;stroke-width:10.95020008;stroke-linecap:butt"/></g><g transform="translate(18.388 -20.399)"><title>path58</title><path d="M15.04 93.8c0 1.21-3.37 2.19-7.52 2.19S0 95.01 0 93.8s3.37-2.2 7.52-2.2 7.52.99 7.52 2.2" style="fill:#50e6ff;stroke:none;stroke-width:10.95020008;stroke-linecap:butt"/></g><g transform="translate(19.95 -20.399)"><title>path60</title><path d="M5.96 94.3a18.168 17.645-180 0 0-5.96.83 17.551 17.046-180 0 0 5.96.86 17.554 17.049-180 0 0 5.95-.86 18.18 17.656-180 0 0-5.95-.83" style="fill:#198ab3;stroke:none;stroke-width:10.95020008;stroke-linecap:butt"/></g><g transform="translate(18.48 -6.917)"><title>path62</title><path d="M13.39 93.33v-5.02h-1.43v6.14h3.77v-1.12ZM2.48 90.86a3.104 3.015 0 0 1-.79-.46.663.644 0 0 1-.191-.477.55.533 0 0 1 .237-.451 1.077 1.046 0 0 1 .644-.172 2.496 2.425 0 0 1 1.46.43v-1.28a4.168 4.048-180 0 0-1.53-.24 2.573 2.5-180 0 0-1.68.5A1.673 1.624-180 0 0 0 90.04a2.073 2.013-180 0 0 1.45 1.79 4.226 4.105 0 0 1 .94.53.653.634 0 0 1 .232.484.55.533 0 0 1-.241.453 1.135 1.102 0 0 1-.681.173 2.528 2.455 0 0 1-1.67-.62v1.37a3.433 3.334-180 0 0 1.63.34 2.93 2.845-180 0 0 1.8-.48 1.647 1.6-180 0 0 .66-1.35 1.585 1.54-180 0 0-.38-1.05 3.896 3.783-180 0 0-1.26-.82m7.93 2.36a3.916 3.804-180 0 0 .13-3.51 2.74 2.662-180 0 0-1.08-1.11 3.052 2.964-180 0 0-1.56-.39 3.278 3.183-180 0 0-1.65.4 2.83 2.749-180 0 0-1.13 1.16 3.745 3.637-180 0 0-.4 1.7 3.494 3.393-180 0 0 .37 1.56 2.788 2.707-180 0 0 1.04 1.1 3.056 2.968-180 0 0 1.52.43l1.31 1.43h1.85l-1.83-1.65a2.705 2.627-180 0 0 1.43-1.12m-1.42-.38a1.423 1.382 0 0 1-1.17.53 1.401 1.36 0 0 1-1.16-.54 2.718 2.64 0 0 1 .01-2.89 1.443 1.401 0 0 1 1.18-.54 1.352 1.313 0 0 1 1.15.54 2.477 2.405 0 0 1 .41 1.48 2.268 2.202 0 0 1-.42 1.42" style="fill:url(#e);stroke:none;stroke-width:10.95020008;stroke-linecap:butt"/></g></g></g></svg>
